public/assets/img/svg/embed/duplicate.svg

<svg xmlns="http://www.w3.org/2000/svg" width="48" height="48" viewBox="-1.5 -5.5 48 48" enable-background="new -1.5 -5.5 48 48"><path d="M5.167 28.241h-3.497v-26.54h35.591v4.445c0 .469.375.85.835.85.462 0 .836-.381.836-.85v-5.296c0-.469-.374-.85-.836-.85h-37.261c-.461 0-.835.381-.835.85v28.241c0 .469.374.85.835.85h4.331c.462 0 .836-.381.836-.85s-.373-.85-.835-.85zm38.998-21.182h-37.268c-.461 0-.835.381-.835.85v28.24c0 .471.374.85.835.85h37.268c.461.001.835-.379.835-.849v-28.241c0-.469-.374-.85-.835-.85zm-36.433 1.701h35.599v26.539h-35.599v-26.539zM22.126 12c-5.583 0-10.126 4.542-10.126 10.125 0 5.584 4.543 10.127 10.126 10.127 5.584 0 10.126-4.543 10.126-10.127 0-5.583-4.542-10.125-10.126-10.125zm0 18.752c-4.756 0-8.626-3.87-8.626-8.627 0-4.756 3.87-8.625 8.626-8.625 4.757 0 8.626 3.869 8.626 8.625 0 4.757-3.869 8.627-8.626 8.627zm4.303-9.377h-3.553v-3.554c0-.415-.335-.75-.75-.75-.414 0-.75.335-.75.75v3.554h-3.554c-.414 0-.75.336-.75.75s.336.75.75.75h3.554v3.553c0 .414.336.75.75.75.415 0 .75-.336.75-.75v-3.553h3.553c.414 0 .75-.336.75-.75s-.336-.75-.75-.75z"/></svg>

<svg xmlns="http://www.w3.org/2000/svg" width="48" height="48" viewBox="-1.5 -5.5 48 48"><path d="M5.167 28.24H1.67V1.7h35.59v4.446c0 .47.376.85.836.85.462 0 .836-.38.836-.85V.85c0-.47-.374-.85-.836-.85H.836C.373 0 0 .38 0 .85v28.24c0 .47.374.85.835.85h4.33c.463 0 .837-.38.837-.85s-.373-.85-.835-.85zM44.165 7.06H6.897c-.46 0-.835.38-.835.85v28.24c0 .47.374.85.835.85h37.268c.46 0 .835-.38.835-.85V7.91c0-.47-.374-.85-.835-.85zM7.732 8.76h35.6V35.3H7.73V8.76zM22.126 12C16.543 12 12 16.542 12 22.125c0 5.584 4.543 10.127 10.126 10.127 5.584 0 10.126-4.543 10.126-10.127C32.252 16.542 27.71 12 22.126 12zm0 18.752c-4.756 0-8.626-3.87-8.626-8.627 0-4.756 3.87-8.625 8.626-8.625 4.757 0 8.626 3.87 8.626 8.625 0 4.757-3.87 8.627-8.626 8.627zm4.303-9.377h-3.554V17.82c0-.414-.335-.75-.75-.75-.414 0-.75.336-.75.75v3.555h-3.554c-.414 0-.75.336-.75.75s.336.75.75.75h3.554v3.553c0 .414.336.75.75.75.415 0 .75-.336.75-.75v-3.553h3.553c.413 0 .75-.336.75-.75s-.337-.75-.75-.75z"/></svg>
